X: 1
T: WALLABY ROCKS
R: jig
Z: 2014 John Chambers <jc:trillian.mit.edu>
N: In a set for Farmers Jig
S: http://www.kangaroovalleyfolkfestival.com.au/USERIMAGES/Bush%20Dance%2014-05-03.pdf
N: In a set for Circassian Circle
M: 6/8
L: 1/8
K: G
d2c |\
"G"B2A G2D | "C"{G}F2E c3 | "D7"B2A DEF | A2G FED |\
"G"{c}B2A G2D | "C"{G}F2E c3 | "D7"B2A DEF |[1 "G"G3 :|[2 "G"G3 G3 ||[K:D]
|:\
"D"A3 A3 | AAA A2e | f2f ABc | "A7"e2d cBA |\
"D"A3 A3 | AAA A2e | f2f "A7"ABc | "D"d3- d3 :|
